X:1
T:"Walzer"
%%textfont Helvetica-Narrow 10pt
%%begintext align
B:"Wer tanzt nach meiner Pfeife", Sepp Pichler, Herausgeber Steirisches Volksliedwerk, Graz o.J.,
A:Lappach, Suedtirol 1940
S:im buch mit der Angabe: Jahrbuch des Oesterreichischen Volksliedwerkes Bd. 3, Wien 1954
N:im buch ganz in F in der quelle ganz in D
%%endtext 
F:http://simonwascher.info/
Z:abc transcription Simon Wascher
M:3/4
L:1/8
K:G
GB |\
d2dedc | B2DGB2 | A2AcDF | A2G2GB |
d2dedc | B2DGB2 | A2AcDF | G4 :|
|: z2 |\
A2AcDF | G2DGB2 | A2AcDF | G2GBd2 |
d2dedc | B2DGB2 | A2AcDF | G4 :|
%%wordsfont Times-Italic 11pt
W:aus Simon Waschers TradArchiv



